X: 1
T: NAGLE'S LAST -- JIG
C: R.B.Nagle
B: Ryan's Mammoth Collection of Fiddle Tunes
R: jig
M: 2/4
L: 1/16
Z: Contributed 20020511153307 by John Chambers jmchambers:rcn.com
K: D
vA,2vCE DF zuF | FFED FA z"4"A | vA,2vCE DF zuF | EDCE D2z"4"uD |
A,2CE DF zF | FFED FA z"4"A | "4"AGEG FD zF | EDCE D2 |]
uf2 | vafge fd"4"ec | dcBA Bb zub | afge fd"4"ec | dcBA D3uf |
afge fd"4"ec | dcBA Bb z"2"b | "4"d'"1"a"2"b"2"g afge | fd"4"ec d2z2 |]
